communes/5640.svg

<?xml version="1.0" encoding="UTF-8"?>
<svg version="1.0" viewBox="0 0 603 763" xmlns="http://www.w3.org/2000/svg" xmlns:cc="http://creativecommons.org/ns#" xmlns:dc="http://purl.org/dc/elements/1.1/" xmlns:rdf="http://www.w3.org/1999/02/22-rdf-syntax-ns#" xmlns:xlink="http://www.w3.org/1999/xlink">
<metadata>
<rdf:RDF>
<cc:Work rdf:about="">
<dc:format>image/svg+xml</dc:format>
<dc:type rdf:resource="http://purl.org/dc/dcmitype/StillImage"/>
<dc:date>07-AUG-2006</dc:date>
<dc:creator>
<cc:Agent>
<dc:title>Jérôme BLUM (wagner51)</dc:title>
</cc:Agent>
</dc:creator>
<cc:license rdf:resource="http://creativecommons.org/licenses/GPL/2.0/"/>
<dc:coverage/>
<dc:description>Gabarit pour le Projet:Blasons de WIkipédia</dc:description>
<dc:subject>
<rdf:Bag>
<rdf:li>blason suisse modèle gabarit projet blasons</rdf:li>
</rdf:Bag>
</dc:subject>
<dc:language>fr</dc:language>
<dc:title>Gabrit d'un blason suisse</dc:title>
</cc:Work>
<cc:License rdf:about="http://creativecommons.org/licenses/GPL/2.0/">
<cc:permits rdf:resource="http://web.resource.org/cc/Reproduction"/>
<cc:permits rdf:resource="http://web.resource.org/cc/Distribution"/>
<cc:requires rdf:resource="http://web.resource.org/cc/Notice"/>
<cc:permits rdf:resource="http://web.resource.org/cc/DerivativeWorks"/>
<cc:requires rdf:resource="http://web.resource.org/cc/ShareAlike"/>
<cc:requires rdf:resource="http://web.resource.org/cc/SourceCode"/>
</cc:License>
</rdf:RDF>
</metadata>
<defs>
<radialGradient id="a" cx="858.04" cy="579.93" r="300" gradientTransform="matrix(1.215 1.5316e-24 1.4647e-23 1.2667 -839.19 -490.49)" gradientUnits="userSpaceOnUse">
<stop stop-color="#fff" stop-opacity=".31373" offset="0"/>
<stop stop-color="#fff" stop-opacity=".25098" offset=".19"/>
<stop stop-color="#6b6b6b" stop-opacity=".12549" offset=".6"/>
<stop stop-opacity=".12549" offset="1"/>
</radialGradient>
</defs>
<desc>Coat of Arms of Canton of Freiburg (Fribourg)</desc>
<g>
<path d="m1.5 1.499v458.87c0 166.31 134.31 301.13 300 301.13 165.69 0 300-134.82 300-301.13v-458.87h-600z" fill="#2b5df2"/>
<path d="m1.5 1.499v458.87c0 166.31 134.31 301.13 300 301.13v-760h-300v-1e-3z" fill="#e20909"/>
<path d="m281.77 334.72c-3.053-3.053-7.113-4.735-11.43-4.735h-1.311v-2.317c0-8.914-7.251-16.163-16.163-16.163-8.913 0-16.165 7.251-16.165 16.163v5.184h-71.902v-160.84h5.181c8.916 0 16.165-7.252 16.165-16.165s-7.251-16.164-16.165-16.164h-2.317v-1.31c0-8.914-7.251-16.165-16.165-16.165-8.912 0-16.163 7.252-16.163 16.165v1.31h-2.318c-8.913 0-16.164 7.252-16.164 16.164 0 8.913 7.251 16.165 16.164 16.165h5.184v160.84h-71.904v-5.184c0-8.914-7.251-16.163-16.163-16.163-8.913 0-16.165 7.251-16.165 16.163v2.317h-1.309c-8.915 0-16.166 7.251-16.166 16.164 0 8.914 7.251 16.166 16.166 16.166h1.309v2.316c0 8.913 7.252 16.165 16.165 16.165 8.912 0 16.163-7.251 16.163-16.165v-5.181h71.904v160.84h-5.184c-4.317 0-8.375 1.681-11.431 4.732-3.051 3.055-4.733 7.114-4.733 11.433 0 8.913 7.251 16.163 16.164 16.163h2.318v1.311c0 8.912 7.251 16.163 16.163 16.163 8.914 0 16.165-7.251 16.165-16.163v-1.311h2.317c8.916 0 16.165-7.252 16.165-16.163 0-4.318-1.681-8.378-4.735-11.433-3.052-3.052-7.111-4.732-11.429-4.732h-5.183v-160.84h71.904v5.181c0 8.913 7.251 16.165 16.163 16.165 8.914 0 16.165-7.251 16.165-16.165v-2.316h1.308c8.914 0 16.165-7.252 16.165-16.166v-1e-3c0-4.315-1.679-8.375-4.733-11.428z" fill="#fff" stroke="#000" stroke-linecap="round" stroke-linejoin="round" stroke-width="3"/>
<line x1="301.5" x2="301.5" y1="761.5" y2="1.499" fill="none" stroke="#000" stroke-width="3"/>
<g fill="#fcef3c" stroke="#000" stroke-linecap="round" stroke-linejoin="round" stroke-width="3">
<polygon transform="translate(-.041 -.047003)" points="418.8 138.1 418.8 113.17 347.94 113.17 347.94 142.44 361.67 142.44 361.67 176.41 391.34 176.41 391.34 154.36 405.07 154.36 405.07 212.18 391.34 212.18 391.34 190.14 361.67 190.14 361.67 224.1 347.94 224.1 347.94 253.37 418.8 253.37 418.8 228.44 442.07 228.44 442.07 138.1"/>
<path d="m451.5 362.18-106.13 106.13 106.13 106.13 106.13-106.13-106.13-106.13zm21.255 127.39c1.688 13.066-2.65 30.077-21.255 39.348-18.604-9.271-22.943-26.281-21.255-39.348-13.067 1.686-30.08-2.65-39.347-21.256 9.267-18.606 26.279-22.944 39.347-21.257-1.688-13.066 2.65-30.08 21.255-39.347 18.604 9.267 22.943 26.28 21.255 39.347 13.067-1.688 30.08 2.65 39.348 21.257-9.268 18.605-26.281 22.941-39.348 21.256z"/>
<path d="m468.77 373.12v-267.58c0-3.394-2.752-6.146-6.145-6.146h-22.254c-3.393 0-6.145 2.751-6.145 6.146v267.58h34.544z"/>
<ellipse transform="translate(-.041 -.047003)" cx="350.65" cy="468.36" rx="12.085" ry="17.706"/>
<ellipse transform="translate(-.041 -.047003)" cx="552.42" cy="468.36" rx="12.084" ry="17.706"/>
<ellipse transform="translate(-.041 -.047003)" cx="451.54" cy="569.25" rx="17.704" ry="12.086"/>
<path d="m482.77 370.04c0-3.395-2.751-6.146-6.145-6.146h-50.256c-3.394 0-6.145 2.751-6.145 6.146v3.335c0 3.394 2.751 6.145 6.145 6.145h50.256c3.394 0 6.145-2.751 6.145-6.145v-3.335z"/>
<path d="m482.77 566.59c0 3.395-2.751 6.145-6.145 6.145h-50.256c-3.394 0-6.145-2.75-6.145-6.145v-3.335c0-3.394 2.751-6.146 6.145-6.146h50.256c3.394 0 6.145 2.752 6.145 6.146v3.335z"/>
<path d="m353.22 437.04c-3.395 0-6.146 2.751-6.146 6.146v50.256c0 3.394 2.751 6.145 6.146 6.145h3.334c3.396 0 6.146-2.751 6.146-6.145v-50.256c0-3.395-2.75-6.146-6.146-6.146h-3.334z"/>
<path d="m549.78 437.04c3.394 0 6.145 2.751 6.145 6.146v50.256c0 3.394-2.751 6.145-6.145 6.145h-3.334c-3.396 0-6.146-2.751-6.146-6.145v-50.256c0-3.395 2.749-6.146 6.146-6.146h3.334z"/>
</g>
</g>
<g>
<path d="m1.5 1.5v458.87c0 166.31 134.31 301.13 300 301.13 165.69 0 300-134.82 300-301.13v-458.87h-600z" fill="url(#a)"/>
<path d="m1.5 1.5v458.87c0 166.31 134.31 301.13 300 301.13 165.69 0 300-134.82 300-301.13v-458.87h-600z" fill="none" stroke="#000" stroke-width="3"/>
</g>
</svg>

<?xml version="1.0" encoding="UTF-8" standalone="no"?>
<svg
   xmlns:dc="http://purl.org/dc/elements/1.1/"
   xmlns:cc="http://creativecommons.org/ns#"
   xmlns:rdf="http://www.w3.org/1999/02/22-rdf-syntax-ns#"
   xmlns:svg="http://www.w3.org/2000/svg"
   xmlns="http://www.w3.org/2000/svg"
   xmlns:xlink="http://www.w3.org/1999/xlink"
   xmlns:sodipodi="http://sodipodi.sourceforge.net/DTD/sodipodi-0.dtd"
   xmlns:inkscape="http://www.inkscape.org/namespaces/inkscape"
   height="763"
   width="603"
   version="1.0"
   id="svg20"
   sodipodi:version="0.32"
   inkscape:version="0.46"
   sodipodi:docname="Lussy_sur_Morges-coat_of_arms.svg"
   sodipodi:docbase="C:\Documents and Settings\Steve\Bureau\Blason Villages Suisse pour Wikipédia (par Delta-9)"
   inkscape:output_extension="org.inkscape.output.svg.inkscape">
  <metadata
     id="metadata31">
    <rdf:RDF>
      <cc:Work
         rdf:about="">
        <dc:format>image/svg+xml</dc:format>
        <dc:type
           rdf:resource="http://purl.org/dc/dcmitype/StillImage" />
        <dc:date>07-AUG-2006</dc:date>
        <dc:creator>
          <cc:Agent>
            <dc:title>Jérôme BLUM (wagner51)</dc:title>
          </cc:Agent>
        </dc:creator>
        <cc:license
           rdf:resource="http://creativecommons.org/licenses/GPL/2.0/" />
        <dc:coverage />
        <dc:description>Gabarit pour le Projet:Blasons de WIkipédia</dc:description>
        <dc:subject>
          <rdf:Bag>
            <rdf:li>blason suisse modèle gabarit projet blasons</rdf:li>
          </rdf:Bag>
        </dc:subject>
        <dc:language>fr</dc:language>
        <dc:title>Gabrit d'un blason suisse</dc:title>
      </cc:Work>
      <cc:License
         rdf:about="http://creativecommons.org/licenses/GPL/2.0/">
        <cc:permits
           rdf:resource="http://web.resource.org/cc/Reproduction" />
        <cc:permits
           rdf:resource="http://web.resource.org/cc/Distribution" />
        <cc:requires
           rdf:resource="http://web.resource.org/cc/Notice" />
        <cc:permits
           rdf:resource="http://web.resource.org/cc/DerivativeWorks" />
        <cc:requires
           rdf:resource="http://web.resource.org/cc/ShareAlike" />
        <cc:requires
           rdf:resource="http://web.resource.org/cc/SourceCode" />
      </cc:License>
    </rdf:RDF>
  </metadata>
  <defs
     id="defs29"><inkscape:perspective
   sodipodi:type="inkscape:persp3d"
   inkscape:vp_x="0 : 381.5 : 1"
   inkscape:vp_y="0 : 1000 : 0"
   inkscape:vp_z="603 : 381.5 : 1"
   inkscape:persp3d-origin="301.5 : 254.33333 : 1"
   id="perspective28" />
<linearGradient
   id="linearGradient2893">
  <stop
     style="stop-color:#ffffff;stop-opacity:0.3137255;"
     offset="0"
     id="stop2895" />
  <stop
     id="stop2897"
     offset="0.19"
     style="stop-color:#ffffff;stop-opacity:0.25098041;" />
  <stop
     style="stop-color:#6b6b6b;stop-opacity:0.1254902;"
     offset="0.60000002"
     id="stop2901" />
  <stop
     style="stop-color:#000000;stop-opacity:0.1254902;"
     offset="1"
     id="stop2899" />
</linearGradient>
<linearGradient
   id="linearGradient2955">
  <stop
     style="stop-color:white;stop-opacity:0;"
     offset="0"
     id="stop2965" />
  <stop
     style="stop-color:black;stop-opacity:0.64583331;"
     offset="1"
     id="stop2959" />
</linearGradient>
<radialGradient
   inkscape:collect="always"
   xlink:href="#linearGradient2893"
   id="radialGradient3236"
   gradientUnits="userSpaceOnUse"
   gradientTransform="matrix(1.215027,1.531577e-24,1.464684e-23,1.266667,-839.1924,-490.4894)"
   cx="858.04236"
   cy="579.93323"
   fx="858.04236"
   fy="579.93323"
   r="300" />
<inkscape:perspective
   id="perspective2510"
   inkscape:persp3d-origin="297.63751 : 280.63 : 1"
   inkscape:vp_z="595.27502 : 420.94501 : 1"
   inkscape:vp_y="0 : 1000 : 0"
   inkscape:vp_x="0 : 420.94501 : 1"
   sodipodi:type="inkscape:persp3d" />

	
	
	

	
	

		
		
		
		
			
		
			
		
			
		
		
		
		
	</defs>
  <sodipodi:namedview
     inkscape:window-height="968"
     inkscape:window-width="1280"
     inkscape:pageshadow="2"
     inkscape:pageopacity="0.0"
     guidetolerance="10.0"
     gridtolerance="10.0"
     objecttolerance="10.0"
     borderopacity="1.0"
     bordercolor="#666666"
     pagecolor="#ffffff"
     id="base"
     inkscape:zoom="0.92652193"
     inkscape:cx="173.53758"
     inkscape:cy="399.00713"
     inkscape:window-x="1280"
     inkscape:window-y="22"
     inkscape:current-layer="layer2"
     showgrid="false"
     showguides="true"
     inkscape:guide-bbox="true">
    <sodipodi:guide
       orientation="horizontal"
       position="761.5"
       id="guide1885" />
    <sodipodi:guide
       orientation="vertical"
       position="1.5"
       id="guide1887" />
    <sodipodi:guide
       orientation="horizontal"
       position="1.5"
       id="guide1889" />
    <sodipodi:guide
       orientation="vertical"
       position="601.5"
       id="guide1891" />
    <sodipodi:guide
       orientation="vertical"
       position="301.50081"
       id="guide1893" />
  </sodipodi:namedview>
  <desc
     id="desc22">Coat of Arms of Canton of Freiburg (Fribourg)</desc>
  <g
     inkscape:groupmode="layer"
     id="layer1"
     inkscape:label="Fond écu"
     style="opacity:1"
     sodipodi:insensitive="true">
    <path
       d="M 1.5,1.498997 L 1.5,460.369 C 1.5,626.68 135.814,761.5 301.5,761.5 C 467.188,761.5 601.5,626.68 601.5,460.369 L 601.5,1.498997 L 1.5,1.498997 z"
       id="path2507"
       style="opacity:1;fill:#2b5df2" />
    <path
       d="M 1.5,1.498997 L 1.5,460.369 C 1.5,626.68 135.814,761.5 301.5,761.5 L 301.5,1.499997 L 1.5,1.499997 L 1.5,1.498997 z"
       id="path2483"
       style="opacity:1;fill:#e20909" />
  </g>
  <g
     inkscape:groupmode="layer"
     id="layer2"
     inkscape:label="Meubles"
     style="opacity:1"
     sodipodi:insensitive="true">
    <g
       id="g2590">
      <path
         style="fill:#ffffff;stroke:#000000;stroke-width:3;stroke-linecap:round;stroke-linejoin:round"
         id="path2627"
         d="M 281.77,334.718 C 278.717,331.665 274.657,329.983 270.34,329.983 C 270.34,329.983 269.539,329.983 269.029,329.983 C 269.029,328.88 269.029,327.666 269.029,327.666 C 269.029,318.752 261.778,311.503 252.866,311.503 C 243.953,311.503 236.701,318.754 236.701,327.666 C 236.701,327.666 236.701,330.338 236.701,332.85 C 230.413,332.85 171.085,332.85 164.799,332.85 C 164.799,326.561 164.799,178.301 164.799,172.015 C 167.309,172.015 169.98,172.015 169.98,172.015 C 178.896,172.015 186.145,164.763 186.145,155.85 C 186.145,146.937 178.894,139.686 169.98,139.686 C 169.98,139.686 168.765,139.686 167.663,139.686 C 167.663,139.176 167.663,138.376 167.663,138.376 C 167.663,129.462 160.412,122.211 151.498,122.211 C 142.586,122.211 135.335,129.463 135.335,138.376 C 135.335,138.376 135.335,139.175 135.335,139.686 C 134.232,139.686 133.017,139.686 133.017,139.686 C 124.104,139.686 116.853,146.938 116.853,155.85 C 116.853,164.763 124.104,172.015 133.017,172.015 C 133.017,172.015 135.689,172.015 138.201,172.015 C 138.201,178.303 138.201,326.562 138.201,332.85 C 131.913,332.85 72.585,332.85 66.297,332.85 C 66.297,330.338 66.297,327.666 66.297,327.666 C 66.297,318.752 59.046,311.503 50.134,311.503 C 41.221,311.503 33.969,318.754 33.969,327.666 C 33.969,327.666 33.969,328.881 33.969,329.983 C 33.459,329.983 32.66,329.983 32.66,329.983 C 23.745,329.983 16.494,337.234 16.494,346.147 C 16.494,355.061 23.745,362.313 32.66,362.313 C 32.66,362.313 33.458,362.313 33.969,362.313 C 33.969,363.415 33.969,364.629 33.969,364.629 C 33.969,373.542 41.221,380.794 50.134,380.794 C 59.046,380.794 66.297,373.543 66.297,364.629 C 66.297,364.629 66.297,361.958 66.297,359.448 C 72.585,359.448 131.913,359.448 138.201,359.448 C 138.201,365.735 138.201,513.996 138.201,520.284 C 135.692,520.284 133.017,520.284 133.017,520.284 C 128.7,520.284 124.642,521.965 121.586,525.016 C 118.535,528.071 116.853,532.13 116.853,536.449 C 116.853,545.362 124.104,552.612 133.017,552.612 C 133.017,552.612 134.231,552.612 135.335,552.612 C 135.335,553.121 135.335,553.923 135.335,553.923 C 135.335,562.835 142.586,570.086 151.498,570.086 C 160.412,570.086 167.663,562.835 167.663,553.923 C 167.663,553.923 167.663,553.124 167.663,552.612 C 168.765,552.612 169.98,552.612 169.98,552.612 C 178.896,552.612 186.145,545.36 186.145,536.449 C 186.145,532.131 184.464,528.071 181.41,525.016 C 178.358,521.964 174.299,520.284 169.981,520.284 C 169.981,520.284 167.31,520.284 164.798,520.284 C 164.798,513.994 164.798,365.734 164.798,359.448 C 171.086,359.448 230.414,359.448 236.702,359.448 C 236.702,361.958 236.702,364.629 236.702,364.629 C 236.702,373.542 243.953,380.794 252.865,380.794 C 261.779,380.794 269.03,373.543 269.03,364.629 C 269.03,364.629 269.03,363.415 269.03,362.313 C 269.54,362.313 270.338,362.313 270.338,362.313 C 279.252,362.313 286.503,355.061 286.503,346.147 L 286.503,346.146 C 286.503,341.831 284.824,337.771 281.77,334.718 z" />
    </g>
    <line
       y2="1.4989979"
       x2="301.49701"
       y1="761.49701"
       x1="301.49701"
       id="line2487"
       style="fill:none;stroke:#000000;stroke-width:3" />
    <g
       id="g2578">
      <polygon
         transform="translate(-4.1e-2,-4.7003e-2)"
         id="polygon2485"
         points="418.802,138.104 418.802,113.172 347.945,113.172 347.945,142.44 361.674,142.44 361.674,176.406 391.343,176.406 391.343,154.363 405.072,154.363 405.072,212.177 391.343,212.177 391.343,190.136 361.674,190.136 361.674,224.1 347.945,224.1 347.945,253.369 418.802,253.369 418.802,228.438 442.071,228.438 442.071,138.104 418.802,138.104 "
         style="fill:#fcef3c;stroke:#000000;stroke-width:3;stroke-linecap:round;stroke-linejoin:round" />
      <path
         id="path2487"
         d="M 451.497,362.184 L 345.366,468.315 L 451.497,574.444 L 557.628,468.315 L 451.497,362.184 z M 472.752,489.571 C 474.44,502.637 470.102,519.648 451.497,528.919 C 432.893,519.648 428.554,502.638 430.242,489.571 C 417.175,491.257 400.162,486.921 390.895,468.315 C 400.162,449.709 417.174,445.371 430.242,447.058 C 428.554,433.992 432.892,416.978 451.497,407.711 C 470.101,416.978 474.44,433.991 472.752,447.058 C 485.819,445.37 502.832,449.708 512.1,468.315 C 502.832,486.92 485.819,491.256 472.752,489.571 z"
         style="fill:#fcef3c;stroke:#000000;stroke-width:3;stroke-linecap:round;stroke-linejoin:round" />
      <path
         id="path2489"
         d="M 468.769,373.117 L 468.769,105.54 C 468.769,102.146 466.017,99.393997 462.624,99.393997 L 440.37,99.393997 C 436.977,99.393997 434.225,102.145 434.225,105.54 L 434.225,373.117 L 468.769,373.117 z"
         style="fill:#fcef3c;stroke:#000000;stroke-width:3;stroke-linecap:round;stroke-linejoin:round" />
      <ellipse
         transform="translate(-4.1e-2,-4.7003e-2)"
         id="ellipse2491"
         ry="17.705999"
         rx="12.085"
         cy="468.362"
         cx="350.65399"
         sodipodi:cx="350.65399"
         sodipodi:cy="468.362"
         sodipodi:rx="12.085"
         sodipodi:ry="17.705999"
         style="fill:#fcef3c;stroke:#000000;stroke-width:3;stroke-linecap:round;stroke-linejoin:round" />
      <ellipse
         transform="translate(-4.1e-2,-4.7003e-2)"
         id="ellipse2493"
         ry="17.705999"
         rx="12.084"
         cy="468.362"
         cx="552.422"
         sodipodi:cx="552.422"
         sodipodi:cy="468.362"
         sodipodi:rx="12.084"
         sodipodi:ry="17.705999"
         style="fill:#fcef3c;stroke:#000000;stroke-width:3;stroke-linecap:round;stroke-linejoin:round" />
      <ellipse
         transform="translate(-4.1e-2,-4.7003e-2)"
         id="ellipse2495"
         ry="12.086"
         rx="17.704"
         cy="569.24597"
         cx="451.53799"
         sodipodi:cx="451.53799"
         sodipodi:cy="569.24597"
         sodipodi:rx="17.704"
         sodipodi:ry="12.086"
         style="fill:#fcef3c;stroke:#000000;stroke-width:3;stroke-linecap:round;stroke-linejoin:round" />
      <path
         id="path2497"
         d="M 482.77,370.036 C 482.77,366.641 480.019,363.89 476.625,363.89 L 426.369,363.89 C 422.975,363.89 420.224,366.641 420.224,370.036 L 420.224,373.371 C 420.224,376.765 422.975,379.516 426.369,379.516 L 476.625,379.516 C 480.019,379.516 482.77,376.765 482.77,373.371 L 482.77,370.036 L 482.77,370.036 z"
         style="fill:#fcef3c;stroke:#000000;stroke-width:3;stroke-linecap:round;stroke-linejoin:round" />
      <path
         id="path2499"
         d="M 482.77,566.593 C 482.77,569.988 480.019,572.738 476.625,572.738 L 426.369,572.738 C 422.975,572.738 420.224,569.988 420.224,566.593 L 420.224,563.258 C 420.224,559.864 422.975,557.112 426.369,557.112 L 476.625,557.112 C 480.019,557.112 482.77,559.864 482.77,563.258 L 482.77,566.593 L 482.77,566.593 z"
         style="fill:#fcef3c;stroke:#000000;stroke-width:3;stroke-linecap:round;stroke-linejoin:round" />
      <path
         id="path2501"
         d="M 353.219,437.04 C 349.824,437.04 347.073,439.791 347.073,443.186 L 347.073,493.442 C 347.073,496.836 349.824,499.587 353.219,499.587 L 356.553,499.587 C 359.949,499.587 362.699,496.836 362.699,493.442 L 362.699,443.186 C 362.699,439.791 359.949,437.04 356.553,437.04 L 353.219,437.04 L 353.219,437.04 z"
         style="fill:#fcef3c;stroke:#000000;stroke-width:3;stroke-linecap:round;stroke-linejoin:round" />
      <path
         id="path2503"
         d="M 549.776,437.04 C 553.17,437.04 555.921,439.791 555.921,443.186 L 555.921,493.442 C 555.921,496.836 553.17,499.587 549.776,499.587 L 546.442,499.587 C 543.046,499.587 540.296,496.836 540.296,493.442 L 540.296,443.186 C 540.296,439.791 543.045,437.04 546.442,437.04 L 549.776,437.04 L 549.776,437.04 z"
         style="fill:#fcef3c;stroke:#000000;stroke-width:3;stroke-linecap:round;stroke-linejoin:round" />
    </g>
  </g>
  <g
     inkscape:groupmode="layer"
     id="layer3"
     inkscape:label="Reflet final"
     style="display:inline"
     sodipodi:insensitive="true">
    <path
       style="fill:url(#radialGradient3236);fill-opacity:1"
       d="M 1.5,1.5 L 1.5,460.3679 C 1.5,626.67854 135.81454,761.5 301.49993,761.5 C 467.1854,761.5 601.5,626.67854 601.5,460.3679 L 601.5,1.5 L 1.5,1.5 z "
       id="path2346" />
  </g>
  <g
     inkscape:groupmode="layer"
     id="layer4"
     inkscape:label="Contour final"
     style="display:inline"
     sodipodi:insensitive="true">
    <path
       style="fill:none;fill-opacity:1;stroke:#000000;stroke-width:3;stroke-miterlimit:4;stroke-dasharray:none;stroke-opacity:1"
       d="M 1.5,1.5 L 1.5,460.36794 C 1.5,626.67854 135.81454,761.5 301.49993,761.5 C 467.1854,761.5 601.5,626.67854 601.5,460.36794 L 601.5,1.5 L 1.5,1.5 z "
       id="path3239" />
  </g>
</svg>
